X:1
T: Valse des Bois
I:
C: W-41
C: Richard Forest
M: 3/4
L: 1/4
Z:
R: waltz
K: Em
B,| "Em"E>DE| "Bm7"F>EF| "Em7"GAG| "Bm7"FED| "Em"E3| "Bm7"DB,D| "Em"E3-| "B7sus"E2 :|
\
"D7sus"G/A/| \
"G"B3| BcB| "D"AFD| DEF| "Em"G3| GAG| "Bm7"F3-| FGA|
"G"B3| BcB| "D"AFD| DEF| "Em7"GFE| "Bm7"FED| "C"E3-| "D9"EGA|
"G"B3| BcB| "D"Add| dcB| "Em"G3| GAG| "Bm7"F3-| FGA|
"G"BAB| "C"cde| "Em"BAG| "Am"AGF| "Em7"G2G| "Bm7"FED| "Em"E3-| "(B7sus)"E2 |]
%
